www/assets/icons/javascript.svg

<svg xmlns="http://www.w3.org/2000/svg" width="24" height="24" viewBox="0 0 24 24" fill='currentColor'><path d="M12.5 14v-1H14v.5h2v-1h-2.5c-.55 0-1-.45-1-1V10c0-.55.45-1 1-1h3c.55 0 1 .45 1 1v1H16v-.5h-2v1h2.5c.55 0 1 .45 1 1V14c0 .55-.45 1-1 1h-3c-.55 0-1-.45-1-1m-3-5v4.5H8v-1H6.5v1c0 .83.67 1.5 1.5 1.5h1.5c.83 0 1.5-.67 1.5-1.5V9z"/></svg>

<svg width="24" height="24" viewBox="0 0 24 24" xmlns="http://www.w3.org/2000/svg" fill='currentColor'><path d="M12.5 14V13H14V13.5H16V12.5H13.5C12.95 12.5 12.5 12.05 12.5 11.5V10C12.5 9.45 12.95 9 13.5 9H16.5C17.05 9 17.5 9.45 17.5 10V11H16V10.5H14V11.5H16.5C17.05 11.5 17.5 11.95 17.5 12.5V14C17.5 14.55 17.05 15 16.5 15H13.5C12.95 15 12.5 14.55 12.5 14ZM9.5 9V13.5H8V12.5H6.5V13.5C6.5 14.33 7.17 15 8 15H9.5C10.33 15 11 14.33 11 13.5V9C11 9 10.33 9 9.5 9Z"/></svg>
